X:1
T:St. Eanswyth, 77.74
T:Joseph W. Sidebotham, 1881
T:St. Eanswyth, 77.74
T:Public Domain
C:Joseph W. Sidebotham, 1881
Z:Public Domain
%%score ( 1 2 ) ( 3 4 )
L:1/8
M:4/4
K:A
V:1 treble 
V:2 treble 
V:3 bass 
V:4 bass 
V:1
 [CE]3 [DE] E2 [CA]2 | [DA]2 [DF]2 [CE]4 | [CE]3 E E2 [Ec]2 | [^Dc]2 [DB]2 [EB]4 | %4
 [EG]2 [EA]2 [EB]2 [Ec]2 | [Fc]2 [FB]2 [^Ec]4 | [CA]2 [Ec]2 [DB]4 | [CA]8 |] %8
V:2
 x4 E2 x2 | x8 | x3 E E2 x2 | x8 | x8 | x8 | x8 | x8 |] %8
V:3
 [A,,A,]3 [B,,G,] [C,A,]2 [A,,E,]2 | [D,F,]2 ([F,A,][G,B,]) [A,C]4 | %2
 [A,C]3 [G,B,] [A,C]2 [A,,A,]2 | [B,,A,]2 [B,,A,]2 [E,G,]4 | [E,B,]2 [F,B,]2 [G,B,]2 A,2 | %5
 [D,F,]2 [D,F,]2 [C,G,]4 | [F,A,]2 [C,A,]2 [E,G,]4 | [A,,A,]8 |] %8
V:4
 x8 | x8 | x8 | x8 | x6 A,2 | x8 | x8 | x8 |] %8

